X:1
T:Blessed be the Lord
T:Orlando Gibbons (1583-1625)
T:Blessed be the Lord
T:Ps. 106:48; sempiterna
T:© 2019 by Paul R Marchesano. May be freely copied for nonprofit use.
T:© 2019 by Paul R Marchesano. May be freely copied for nonprofit use.
T:© 2019 by Paul R Marchesano. May be freely copied for nonprofit use.
T:© 2019 by Paul R Marchesano. May be freely copied for nonprofit use.
C:Orlando Gibbons
C:(1583-1625)
Z:Ps. 106:48 plus doxology
Z:© 2019 by Paul R Marchesano. May be freely copied for nonprofit use.
%%score [ 1 2 3 4 ]
L:1/8
Q:1/4=100
M:4/4
K:F
V:1 treble nm="Soprano" snm="S"
V:2 treble nm="Alto" snm="A"
V:3 treble-8 nm="Tenor" snm="T"
V:4 bass nm="Bass" snm="B"
V:1
 c6 c2 | d2 e2 f4 | e2 d3 c c2- | c2 =B2 c4 | G4 z2 c2 | c2 =B2 c4- | c2 d2 =B2 d2 | d2 c2 d4 | %8
w: Bless- ed|be the Lord|God _ of ‿s-|* ra- *|el from|ev- er- last-|* * ing, from|ev- er- last-|
 c4 z2 c2 | c2 =B2 c4 | =B4 z2 B2 | =B2 A2 B4 | A4 z2 f2 | f2 g2 f4 | e2 e3 e d2 | c4 z2 c2 | %16
w: ing, from|ev- er- last-|ing, from|ev- er- last-|ing, from|ev- er- last-|ing, ev- er- last-|ing, and|
 d2 g3 f e2 | d2 c2 =B2 c2 | d4 e2 f2 | c4 c4- | c4 z2 c2 | e2 ef g2 a2 | g3 f ed e2 | d8 | %24
w: world with- * out|end, and world with-|out end, with-|out end,|_ and|let all the peo- ple|say, A- * * *|men,|
 z2 G2 =B2 Bc | d2 e2 d2 g2- | gf e2 d2 c2- | c2 =B2 c4 | G4 c4 | z2 c2 e3 f | g2 a2 g2 f2- | %31
w: and let all the|peo- ple say, A-||* * men,|A- men,|A- * *||
 fe/d/ c2 c3 B | A2 F2 A3 B | c2 d2 c2 f2- | fe/f/ ed e4 |] %35
w: |men, A- * *||* * * * * men.|
V:2
 F6 F2 | F2 C4 =B,2 | C2 D2 E3 F | G4 G4 | z2 G2 G2 E2 | G6 A2 | G6 G2 | F2 A2 F2 B2 | A6 A2 | %9
w: Bless- ed|be the Lord|God of ‿s- *|ra- el|from ev- er-|last- *|ing, from|ev- er- last- *|ing, from|
 A2 E2 A4 | ^G4 z2 =G2 | G2 D2 G4 | ^F4 z2 A2 | A2 G2 A4 | G4 C2 =B,2 | C4 G2 A2 | =B4 c2 C2 | %17
w: ev- er- last-|ing, from|ev- er- last-|ing, from|ev- er- last-|ing, from _|ev- er- *|last- ing, and|
 D2 G3 F E2 | D2 G2 G2 A2 | E2 F2 E2 C2 | E2 EF G2 A2 | G4 c4- | c2 G2 G4- | G4 z2 G,2 | %24
w: world with- * out|end, and world with-|out _ end, and|let all the peo- ple|say, A-|* * men,|_ and|
 =B,2 B,C D2 E2 | D2 G3 F EC | D2 =B3 A G2 | G8 | z2 C2 E3 F | G2 A2 G3 F | E2 C2 G2 A2- | %31
w: let all the peo- ple|say, A- * * *|men, A- * *|men,|A- * *||* * * men,|
 A2 F2 A3 B | c2 d2 c3 B | A2 F2 F2 A2- | AG/A/ GF G4 |] %35
w: _ A- * *||* men, A- *|* * * * * men.|
V:3
 c6 c2 | A2 c2 d4 | G6 c2 | d2 d2 c2 e2 | e2 d2 e4 | d2 d2 c2 c2 | c2 =B2 G4 | z2 f2 d2 f2 | %8
w: Bless- ed|be the Lord|God of|‿s- ra- el from|ev- er- last-|ing, from ev- er-|last- * ing,|from ev- er-|
 f2 c4 e2 | e2 e2 e4 | e4 z2 d2 | d2 d2 d4 | d4 z2 c2 | c2 c2 c4 | c2 c2 e2 g2- | gf e3 d c2 | %16
w: last- ing, from|ev- er- last-|ing, from|ev- er- last-|ing, from|ev- er- last-|ing, and world with-|* * * out end,|
 g3 f ed c2 | =B2 c2 d2 g2- | gf d2 c4 | z2 c2 e2 ef | g2 a2 g3 f | e2 c2 e2 ef | g2 c2 c2 c2 | %23
w: world _ _ _ with-|out end, and world|_ with- out end,|and let all the|peo- ple say, A-|men, and let all the|peo- ple say, A-|
 d2 G2 =B2 Bc | d2 e2 d2 g2- | gfec d2 c2 | =B3 c d2 ec | d4 c2 c2 | e3 f g2 a2 | g3 f e2 c2- | %30
w: men, and let all the|peo- ple say, A-|* * * * * men,|A- * * * *|* men, A-||* * men, A-|
 c2 f2 c4 | F8- | F4 F4 | A3 B c2 d2 | c4 c4 |] %35
w: * * men,|A-|* men,|A- * * *|* men.|
V:4
 F,6 F,2 | F,2 E,2 D,4 | C,2 =B,,2 C,4 | G,3 G, C,2 C2 | C2 =B,2 C4 | G,4 z4 | z4 z2 B,2 | %7
w: Bless- ed|be the Lord|God of _|‿s- ra- el from|ev- er- last-|ing,|from|
 B,2 A,2 B,4 | F,4 z2 A,2 | A,2 ^G,2 A,4 | E,4 z2 G,2 | G,2 ^F,2 G,4 | D,4 z2 F,2 | F,2 E,2 F,4 | %14
w: ev- er- last-|ing, from|ev- er- last-|ing, from|ev- er- last-|ing, from|ev- er- last-|
 C,4 z2 G,2 | A,2 C3 B, A,2 | G,4 C,4 | G,4 G,4 | G,4 C,2 G,2 | A,2 A,B, C2 C2 | C,4 C,4- | %21
w: ing, and|world with- * out|end, and|world with-|out end, and|let all the peo- ple|say, A-|
 C,4 C,4 | C,4 C,4 | G,4 G,4 | G,2 G,2 G,4- | G,2 G,2 G,4- | G,4 G,4- | G,4 C,4- | C,8- | %29
w: * men,|A- men,|and let|all the peo-|* ple say,|_ A-|||
 C,4 C,4- | C,4 z2 F,2 | A,3 B, C2 D2 | C3 B, A,2 F,2 | F,8 | C,4 C,4 |] %35
w: * men,|_ A-|||men,|A- men.|

